X: 31
T: 23
R: barndance
M: 4/4
K: Gminor
M:3/4
g4 g2|g4 f2|g6|d6|g4 g2|g4 f2|g6|d6|g6|g4 a2|b4 a2|g4 f2|g6|Hd6:|
G6|G2 A2 B2|c2 AG F2|G6|(3FED (3EDC HD2|C2 B,4|G4 AB|
(3ABA G4|F2 G4||

